IMB-X-Files/The-Ambassadors-Assets/6616e2ee490dd36228be749e_nsn-logo.svg

<svg fill="none" height="53" viewBox="0 0 242 53" width="242" xmlns="http://www.w3.org/2000/svg" xmlns:xlink="http://www.w3.org/1999/xlink"><clipPath id="a"><path d="m59.75 9h122v34.5487h-122z"/></clipPath><mask id="b" height="29" maskUnits="userSpaceOnUse" width="123" x="59" y="12"><path d="m181.748 12.249h-122.0195v28.0505h122.0195z" fill="#fff"/></mask><g clip-path="url(#a)"><g fill="#fff" mask="url(#b)"><path d="m160.895 21.645c-3.698 0-6.745 2.7094-6.745 6.8875 0 4.178 2.991 6.9721 6.745 6.9721 2.455 0 4.769-1.1861 5.926-3.3866l-2.201-1.1002c-.733 1.2135-2.117 1.9191-3.612 1.9191-2.061 0-3.726-1.1002-4.092-3.2458h10.414c.028-.4232.055-.8189.055-1.1861 0-4.1493-2.794-6.8588-6.49-6.8588zm-3.951 5.8146c.395-2.2016 2.003-3.2458 3.98-3.2458 1.976 0 3.442 1.186 3.725 3.2458z"/><path d="m122.064 23.9599c-.847-1.496-2.653-2.3149-4.572-2.3149-3.726 0-6.519 2.992-6.519 6.9149s2.962 6.9435 6.406 6.9435c2.032 0 3.837-1.0442 4.685-2.5688v2.2302h2.766v-13.1812h-2.766zm-4.205 8.9473c-2.315 0-4.092-1.9764-4.092-4.3473 0-2.371 1.779-4.3187 4.036-4.3187 2.117 0 4.233 1.7785 4.233 4.3187s-1.976 4.3473-4.176 4.3473z"/><path d="m176.472 21.645c-1.412 0-3.529.7343-4.29 2.3709v-2.0323h-2.766v13.1812h2.766v-7.0841c0-2.7381 2.088-3.7263 3.81-3.7263 1.723 0 2.992 1.2982 2.992 3.4438v7.3666h2.765v-7.5359c0-3.7536-1.946-5.9839-5.277-5.9839z"/><path d="m134.706 21.645c-1.411 0-3.528.7343-4.289 2.3709v-2.0323h-2.767v13.1812h2.767v-7.0841c0-2.7381 2.088-3.7263 3.81-3.7263s2.991 1.2982 2.991 3.4438v7.3666h2.767v-7.5359c0-3.7536-1.948-5.9839-5.278-5.9839z"/><path d="m105.838 30.6205-8.0712-13.4352h-3.2453v17.9804h2.8222v-13.4638l8.1553 13.4638h3.161v-17.9804h-2.822z"/><path d="m149.409 27.6289-2.878-.5364c-1.1-.1978-1.609-.7056-1.609-1.496 0-1.0441.903-1.6092 2.426-1.6092 1.411 0 2.427.6771 2.484 1.6938h2.653c0-2.8512-2.653-4.0361-5.108-4.0361-3.048 0-5.221 1.6092-5.221 4.0361 0 1.9765 1.157 3.2745 3.668 3.7537l2.653.5078c1.27.254 1.694.7057 1.694 1.44 0 1.1574-.904 1.7785-2.709 1.7785-1.806 0-2.936-.8189-3.048-2.0324h-2.568c.113 2.8227 2.399 4.3747 5.587 4.3747s5.502-1.7213 5.502-4.3473c0-1.9191-1.1-3.0766-3.527-3.5283z"/><path d="m86.6473 27.0922c-1.3169-.8653-2.7566-1.6271-4.3179-2.2863-.64-.2634-1.0869-.6257-1.3408-1.087s-.3158-1.0394-.1836-1.7356c.4136-2.0324.5459-3.9801.3946-5.8433-.1514-1.8631-.8463-3.0205-2.0881-3.4711l-.4517-.1693c-1.317-.4887-2.6148-.2634-3.8949.6771-1.28.9417-2.423 2.2016-3.4288 3.7822-.8521 1.3387-1.6126 2.7178-2.2835 4.1375-.5364-.0953-1.0417-.1764-1.5125-.2431-2.2394-.2825-4.0069-.3052-5.3059-.0703-1.2979.2359-2.0416.7104-2.2299 1.4256l-.2253.8189c-.1883.6591.1502 1.3875 1.0154 2.1874.8653.7998 1.7782 1.4816 2.7376 2.0466.9595.5829 1.6269 1.2755 2.0035 2.0742.3766.7997.5172 1.8296.4231 3.0909-.1323 1.6938-.0096 3.2696.3671 4.7274.3766 1.4579 1.1668 2.3853 2.3705 2.7798l.677.2253c1.0726.3577 2.1965.0239 3.3728-1.0024 1.1751-1.0263 2.3288-2.545 3.4574-4.5583.4482-.7844.8963-1.6689 1.3456-2.6523.9988.1526 1.9677.2623 2.9021.3231 2.1727.1406 3.9318.056 5.2774-.2539 1.3443-.3099 2.1119-.7855 2.3002-1.4257l.2538-.9309c.2253-.8464-.3205-1.7034-1.6363-2.5688zm-12.3615-9.9485c1.1669-1.8536 2.3992-2.9586 3.697-3.3162.9404.2635 1.4862 1.1718 1.6364 2.7238s.0942 3.1183-.1693 4.7001c-.1322.7533-.4373 1.2659-.9177 1.5377-.4802.273-1.0964.3064-1.8485.0989-1.6113-.4625-3.2178-.8701-4.8197-1.2242.7116-1.577 1.5172-3.0837 2.4218-4.5189zm-.2538 11.2765c-1.373-.3576-2.3098-1.0108-2.808-1.9621-.4981-.95-.4851-2.0836.0429-3.4008.0084-.0191.0168-.0382.0239-.0584.025.0059.0489.0108.0738.0155 1.6841.3671 3.3729.8046 5.0653 1.3124.7151.2074 1.2038.5602 1.4671 1.0585.2634.4982.273 1.0967.0287 1.7927-.2289.676-.4732 1.3303-.7307 1.9693-1.0535-.2157-2.1083-.4565-3.1642-.7271zm-7.7326-3.768c-1.0154.4422-2.0976.2491-3.2453-.5781-.5828-.3958-1.0726-.8368-1.4671-1.3267 1.1668-.5269 3.0105-.6771 5.5312-.4518.4029.0394.8403.0954 1.3086.1669-.5518 1.0823-1.2597 1.813-2.1262 2.1897zm8.7206 8.9616c-.9785 1.6748-1.9761 2.9728-2.9915 3.8955-1.0154.9214-1.9188 1.3363-2.709 1.242-.5458-.7712-.8605-1.6938-.9451-2.7666s-.0334-2.2016.155-3.3865c.131-.8655.6208-1.4209 1.4671-1.6652.8461-.2444 1.9844-.1884 3.4145.1692.9034.2289 1.783.4255 2.6411.59-.3444.6938-.6877 1.3363-1.0321 1.9216zm6.0533-3.7966c-.8212-.1156-1.6424-.2479-2.4648-.397.2146-.5602.4208-1.1276.6162-1.7057.2634-.7343.6496-1.2183 1.1573-1.4531s1.1-.2014 1.7781.099c2.5959 1.1479 4.0821 2.2207 4.4587 3.2172-1.3551.4899-3.2037.5698-5.5455.2396z"/></g></g></svg>

<svg width="242" height="53" viewBox="0 0 242 53" fill="none" xmlns="http://www.w3.org/2000/svg">
<g clip-path="url(#clip0_3773_1426)">
<mask id="mask0_3773_1426" style="mask-type:luminance" maskUnits="userSpaceOnUse" x="59" y="12" width="123" height="29">
<path d="M181.748 12.249H59.7285V40.2995H181.748V12.249Z" fill="white"/>
</mask>
<g mask="url(#mask0_3773_1426)">
<path d="M160.895 21.645C157.197 21.645 154.15 24.3544 154.15 28.5325C154.15 32.7105 157.141 35.5046 160.895 35.5046C163.35 35.5046 165.664 34.3185 166.821 32.118L164.62 31.0178C163.887 32.2313 162.503 32.9369 161.008 32.9369C158.947 32.9369 157.282 31.8367 156.916 29.6911H167.33C167.358 29.2679 167.385 28.8722 167.385 28.505C167.385 24.3557 164.591 21.6462 160.895 21.6462V21.645ZM156.944 27.4596C157.339 25.258 158.947 24.2138 160.924 24.2138C162.9 24.2138 164.366 25.3998 164.649 27.4596H156.944Z" fill="white"/>
<path d="M122.064 23.9599C121.217 22.4639 119.411 21.645 117.492 21.645C113.766 21.645 110.973 24.637 110.973 28.5599C110.973 32.4828 113.935 35.5034 117.379 35.5034C119.411 35.5034 121.216 34.4592 122.064 32.9346V35.1648H124.83V21.9836H122.064V23.9599ZM117.859 32.9072C115.544 32.9072 113.767 30.9308 113.767 28.5599C113.767 26.1889 115.546 24.2412 117.803 24.2412C119.92 24.2412 122.036 26.0197 122.036 28.5599C122.036 31.1001 120.06 32.9072 117.86 32.9072H117.859Z" fill="white"/>
<path d="M176.472 21.645C175.06 21.645 172.943 22.3793 172.182 24.0159V21.9836H169.416V35.1648H172.182V28.0807C172.182 25.3426 174.27 24.3544 175.992 24.3544C177.715 24.3544 178.984 25.6526 178.984 27.7982V35.1648H181.749V27.6289C181.749 23.8753 179.803 21.645 176.472 21.645H176.472Z" fill="white"/>
<path d="M134.706 21.645C133.295 21.645 131.178 22.3793 130.417 24.0159V21.9836H127.65V35.1648H130.417V28.0807C130.417 25.3426 132.505 24.3544 134.227 24.3544C135.949 24.3544 137.218 25.6526 137.218 27.7982V35.1648H139.985V27.6289C139.985 23.8753 138.037 21.645 134.707 21.645H134.706Z" fill="white"/>
<path d="M105.838 30.6205L97.7668 17.1853H94.5215V35.1657H97.3437V21.7019L105.499 35.1657H108.66V17.1853H105.838V30.6205Z" fill="white"/>
<path d="M149.409 27.6289L146.531 27.0925C145.431 26.8947 144.922 26.3869 144.922 25.5965C144.922 24.5524 145.825 23.9873 147.348 23.9873C148.759 23.9873 149.775 24.6644 149.832 25.6811H152.485C152.485 22.8299 149.832 21.645 147.377 21.645C144.329 21.645 142.156 23.2542 142.156 25.6811C142.156 27.6576 143.313 28.9556 145.824 29.4348L148.477 29.9426C149.747 30.1966 150.171 30.6483 150.171 31.3826C150.171 32.54 149.267 33.1611 147.462 33.1611C145.656 33.1611 144.526 32.3422 144.414 31.1287H141.846C141.959 33.9514 144.245 35.5034 147.433 35.5034C150.621 35.5034 152.935 33.7821 152.935 31.1561C152.935 29.237 151.835 28.0795 149.408 27.6278L149.409 27.6289Z" fill="white"/>
<path d="M86.6473 27.0922C85.3304 26.2269 83.8907 25.4651 82.3294 24.8059C81.6894 24.5425 81.2425 24.1802 80.9886 23.7189C80.7347 23.2576 80.6728 22.6795 80.805 21.9833C81.2186 19.9509 81.3509 18.0032 81.1996 16.14C81.0482 14.2769 80.3533 13.1195 79.1115 12.6689L78.6598 12.4996C77.3428 12.0109 76.045 12.2362 74.7649 13.1767C73.4849 14.1184 72.3419 15.3783 71.3361 16.9589C70.484 18.2976 69.7235 19.6767 69.0526 21.0964C68.5162 21.0011 68.0109 20.92 67.5401 20.8533C65.3007 20.5708 63.5332 20.5481 62.2342 20.783C60.9363 21.0189 60.1926 21.4934 60.0043 22.2086L59.779 23.0275C59.5907 23.6866 59.9292 24.415 60.7944 25.2149C61.6597 26.0147 62.5726 26.6965 63.532 27.2615C64.4915 27.8444 65.1589 28.537 65.5355 29.3357C65.9121 30.1354 66.0527 31.1653 65.9586 32.4266C65.8263 34.1204 65.949 35.6962 66.3257 37.154C66.7023 38.6119 67.4925 39.5393 68.6962 39.9338L69.3732 40.1591C70.4458 40.5168 71.5697 40.183 72.746 39.1567C73.9211 38.1304 75.0748 36.6117 76.2034 34.5984C76.6516 33.814 77.0997 32.9295 77.549 31.9461C78.5478 32.0987 79.5167 32.2084 80.4511 32.2692C82.6238 32.4098 84.3829 32.3252 85.7285 32.0153C87.0728 31.7054 87.8404 31.2298 88.0287 30.5896L88.2825 29.6587C88.5078 28.8123 87.962 27.9553 86.6462 27.0899L86.6473 27.0922ZM74.2858 17.1437C75.4527 15.2901 76.685 14.1851 77.9828 13.8275C78.9232 14.091 79.469 14.9993 79.6192 16.5513C79.7694 18.1033 79.7134 19.6696 79.4499 21.2514C79.3177 22.0047 79.0126 22.5173 78.5322 22.7891C78.052 23.0621 77.4358 23.0955 76.6837 22.888C75.0724 22.4255 73.4659 22.0179 71.864 21.6638C72.5756 20.0868 73.3812 18.5801 74.2858 17.1449V17.1437ZM74.032 28.4202C72.659 28.0626 71.7222 27.4094 71.224 26.4581C70.7259 25.5081 70.7389 24.3745 71.2669 23.0573C71.2753 23.0382 71.2837 23.0191 71.2908 22.9989C71.3158 23.0048 71.3397 23.0097 71.3646 23.0144C73.0487 23.3815 74.7375 23.819 76.4299 24.3268C77.145 24.5342 77.6337 24.887 77.897 25.3853C78.1604 25.8835 78.17 26.482 77.9257 27.178C77.6968 27.854 77.4525 28.5083 77.195 29.1473C76.1415 28.9316 75.0867 28.6908 74.0308 28.4202H74.032ZM66.2994 24.6522C65.284 25.0944 64.2018 24.9013 63.0541 24.0741C62.4713 23.6783 61.9815 23.2373 61.587 22.7474C62.7538 22.2205 64.5975 22.0703 67.1182 22.2956C67.5211 22.335 67.9585 22.391 68.4268 22.4625C67.875 23.5448 67.1671 24.2755 66.3006 24.6522H66.2994ZM75.02 33.6138C74.0415 35.2886 73.0439 36.5866 72.0285 37.5093C71.0131 38.4307 70.1097 38.8456 69.3195 38.7513C68.7737 37.9801 68.459 37.0575 68.3744 35.9847C68.2898 34.9119 68.341 33.7831 68.5294 32.5982C68.6604 31.7327 69.1502 31.1773 69.9965 30.933C70.8426 30.6886 71.9809 30.7446 73.411 31.1022C74.3144 31.3311 75.194 31.5277 76.0521 31.6922C75.7077 32.386 75.3644 33.0285 75.02 33.6138ZM81.0733 29.8172C80.2521 29.7016 79.4309 29.5693 78.6085 29.4202C78.8231 28.86 79.0293 28.2926 79.2247 27.7145C79.4881 26.9802 79.8743 26.4962 80.382 26.2614C80.8897 26.0266 81.482 26.06 82.1601 26.3604C84.756 27.5083 86.2422 28.5811 86.6188 29.5776C85.2637 30.0675 83.4151 30.1474 81.0733 29.8172Z" fill="white"/>
</g>
</g>
<defs>
<clipPath id="clip0_3773_1426">
<rect width="122" height="34.5487" fill="white" transform="translate(59.75 9)"/>
</clipPath>
</defs>
</svg>
